X: 26156
T: McIntyre's Fancy
R: jig
M: 6/8
K: Gmajor
|B|cde dcA|GAB A2|eag edc|eAB AGE|
cde dcA|GAG Gcd|eae ged|cAG A2:|
ac'a ged|edg edc|AcA GAc|dec deg|
aeg dec|AcA GEE|cde ged|cAG A2:|

